icons/getyourguide.svg

<?xml version="1.0" encoding="UTF-8"?>
<svg width="256px" height="203px" viewBox="0 0 256 203" version="1.1" xmlns="http://www.w3.org/2000/svg" xmlns:xlink="http://www.w3.org/1999/xlink" preserveAspectRatio="xMidYMid">
    <g>
        <path d="M58.7693166,91.1888424 C58.7693166,87.1185495 61.9112971,84.1193863 65.8387727,84.1193863 C69.7662483,84.1193863 72.9082287,87.1899582 72.9082287,91.1888424 C72.9082287,95.2591353 69.7662483,98.2582985 65.8387727,98.2582985 C61.9112971,98.2582985 58.7693166,95.1877266 58.7693166,91.1888424 Z M71.3372385,78.4781032 C71.3372385,82.5483961 74.479219,85.5475593 78.4066946,85.5475593 C82.3341702,85.5475593 85.4761506,82.4769874 85.4761506,78.4781032 C85.4761506,74.4078103 82.3341702,71.4086471 78.4066946,71.4086471 C74.479219,71.4086471 71.3372385,74.4078103 71.3372385,78.4781032 Z M88.5467225,69.8376569 L88.5467225,82.5483961 C98.4725244,82.5483961 106.256067,90.6175732 106.256067,101.186053 C106.256067,111.754533 98.4011158,119.82371 88.5467225,119.82371 C78.6209205,119.82371 70.837378,111.754533 70.837378,101.186053 L56.9841004,101.186053 C56.9841004,118.75258 70.9801953,132.534449 88.5467225,132.534449 C106.11325,132.534449 120.109344,118.75258 120.109344,101.186053 C120.109344,83.6195258 106.11325,69.8376569 88.5467225,69.8376569 Z M231.006974,189.018689 L231.006974,176.950628 L253.35788,176.950628 L253.35788,164.882566 L231.006974,164.882566 L231.006974,153.028731 L255.642957,153.028731 L255.642957,140.889261 L217.439331,140.889261 L217.439331,201.08675 L256,201.08675 L256,188.94728 L231.006974,188.94728 L231.006974,189.018689 Z M209.370153,171.02371 C209.370153,188.304603 196.159554,201.08675 177.521897,201.08675 L157.670293,201.08675 L157.670293,140.817852 L177.521897,140.817852 C196.159554,140.817852 209.370153,153.742817 209.370153,171.02371 Z M195.516876,171.02371 C195.516876,160.740865 188.661646,152.957322 178.593026,152.957322 L171.166527,152.957322 L171.166527,189.018689 L178.593026,189.018689 C188.661646,189.018689 195.516876,181.306555 195.516876,171.02371 Z M104.899303,177.950349 C104.899303,184.876987 99.972106,190.01841 93.1882845,190.01841 C86.404463,190.01841 81.4772664,184.876987 81.4772664,177.950349 L81.4772664,140.960669 L68.0524407,140.960669 L68.0524407,177.736123 C68.0524407,191.946444 78.6923291,202.372106 93.1882845,202.372106 C107.68424,202.372106 118.324128,191.875035 118.324128,177.736123 L118.324128,140.960669 L104.899303,140.960669 L104.899303,177.950349 L104.899303,177.950349 Z M26.7782427,179.164296 L40.1316597,179.164296 C38.9177127,185.376848 33.4192469,190.161227 26.8496513,190.161227 C19.4945607,190.161227 13.567643,184.23431 13.567643,175.593863 L13.567643,166.667782 C13.567643,158.170153 19.9230126,151.886192 28.8490934,151.886192 C35.7757322,151.886192 41.9882845,155.670851 43.9877266,161.169317 L56.4842399,156.813389 C53.0566248,146.244909 41.7740586,139.675314 28.8490934,139.675314 C12.4965132,139.675314 0.357043236,150.672245 0.357043236,166.667782 L0.357043236,175.593863 C0.428451883,190.946722 11.7824268,202.372106 25.7785216,202.372106 C34.4903766,202.372106 42.2025105,197.94477 46.7012552,191.08954 L46.7012552,201.158159 L58.5550907,201.158159 L58.5550907,167.667503 L26.7782427,167.667503 L26.7782427,179.164296 Z M178.664435,107.827057 L178.664435,71.0516039 L165.239609,71.0516039 L165.239609,108.041283 C165.239609,114.967922 160.312413,120.109344 153.528591,120.109344 C146.74477,120.109344 141.817573,114.967922 141.817573,108.041283 L141.817573,71.0516039 L128.392748,71.0516039 L128.392748,107.827057 C128.392748,122.037378 139.032636,132.46304 153.528591,132.46304 C168.024547,132.46304 178.664435,122.037378 178.664435,107.827057 Z M22.7079498,131.249093 L36.2041841,131.249093 L36.2041841,108.398326 L58.8407252,71.0516039 L43.5592748,71.0516039 L29.2775453,95.6875872 L15.2100418,71.0516039 L0,71.0516039 L22.6365411,108.541144 L22.6365411,131.249093 L22.7079498,131.249093 Z M158.312971,1.14253835 L112.611437,1.14253835 L112.611437,13.2820084 L158.312971,13.2820084 L158.312971,1.14253835 Z M106.827336,49.2005579 L81.762901,49.2005579 L81.762901,37.1324965 L104.113808,37.1324965 L104.113808,25.0644351 L81.762901,25.0644351 L81.762901,13.2105997 L106.398884,13.2105997 L106.398884,1.07112971 L68.195258,1.07112971 L68.195258,61.2686192 L106.755927,61.2686192 L106.755927,49.2005579 L106.827336,49.2005579 Z M25.7785216,62.6253835 C34.4903766,62.6253835 42.2025105,58.1980474 46.7012552,51.3428173 L46.7012552,61.4114365 L58.5550907,61.4114365 L58.5550907,27.920781 L26.7782427,27.920781 L26.7782427,39.4889819 L40.1316597,39.4889819 C38.9177127,45.7015342 33.4192469,50.4859135 26.8496513,50.4859135 C19.4945607,50.4859135 13.567643,44.5589958 13.567643,35.9185495 L13.567643,26.9924686 C13.567643,18.4948396 19.9230126,12.2108787 28.8490934,12.2108787 C35.7757322,12.2108787 41.9882845,15.995537 43.9877266,21.4940028 L56.4842399,17.1380753 C53.0566248,6.56959554 41.7740586,0 28.8490934,0 C12.4965132,0 0.357043236,10.9969317 0.357043236,26.9924686 L0.357043236,35.9185495 C0.428451883,51.2 11.7824268,62.6253835 25.7785216,62.6253835 Z M209.441562,116.039052 L202.443515,108.683961 L209.370153,101.186053 L202.372106,93.8309623 L209.298745,86.3330544 L202.300697,78.9779637 L210.012831,71.0516039 L196.016736,71.0516039 L188.44742,79.0493724 L195.445467,86.404463 L188.518828,93.902371 L195.516876,101.257462 L188.590237,108.75537 L195.588285,116.11046 L188.661646,123.608368 L196.088145,131.320502 L210.155649,131.320502 L202.586332,123.53696 L209.441562,116.039052 Z M143.817015,169.238494 C145.816457,167.453278 149.172664,164.454114 149.172664,158.88424 C149.172664,153.385774 145.816457,150.315202 143.817015,148.529986 C143.745607,148.458577 143.674198,148.387169 143.602789,148.31576 C142.603068,147.24463 142.460251,145.745049 142.388842,145.030962 L142.388842,140.817852 L128.821199,140.817852 L128.821199,146.459135 L128.821199,146.459135 C128.821199,146.530544 128.821199,146.601953 128.821199,146.673361 C128.821199,152.171827 132.177406,155.242399 134.176848,157.027615 C135.605021,158.312971 135.605021,158.384379 135.605021,158.88424 C135.605021,159.3841 135.605021,159.455509 134.176848,160.740865 C132.248815,162.454672 129.106834,165.311018 128.892608,170.452441 L128.892608,170.452441 C128.892608,170.523849 128.892608,170.666667 128.892608,170.738075 C128.892608,170.809484 128.892608,170.809484 128.892608,170.880893 C128.892608,170.952301 128.892608,170.952301 128.892608,171.02371 C128.892608,171.095119 128.892608,171.237936 128.892608,171.309344 L128.892608,171.309344 C129.106834,176.450767 132.320223,179.307113 134.176848,181.020921 C135.605021,182.306276 135.605021,182.377685 135.605021,182.877545 C135.605021,183.377406 135.605021,183.448815 134.176848,184.73417 C132.177406,186.519386 128.821199,189.51855 128.821199,195.088424 C128.821199,195.159833 128.821199,195.231241 128.821199,195.30265 L128.821199,195.30265 L128.821199,200.943933 L142.388842,200.943933 L142.388842,196.730823 C142.388842,196.016736 142.603068,194.517155 143.602789,193.446025 C143.674198,193.374616 143.745607,193.303208 143.817015,193.231799 C145.816457,191.446583 149.172664,188.44742 149.172664,182.877545 C149.172664,177.379079 145.816457,174.308508 143.817015,172.523291 C142.53166,171.380753 142.388842,171.166527 142.388842,170.809484 C142.460251,170.595258 142.603068,170.381032 143.817015,169.238494 Z M128.678382,61.3400279 L142.174616,61.3400279 L142.174616,50.1288703 L128.678382,50.1288703 L128.678382,61.3400279 Z M142.246025,34.1333333 L128.749791,34.1333333 L128.749791,45.3444909 L142.246025,45.3444909 L142.246025,34.1333333 Z M142.246025,18.0663877 L128.749791,18.0663877 L128.749791,29.2775453 L142.246025,29.2775453 L142.246025,18.0663877 Z M244.574616,131.249093 L228.150628,108.255509 C236.148396,105.756206 241.718271,98.758159 241.718271,90.1891213 C241.718271,79.335007 232.720781,71.0516039 221.366806,71.0516039 L213.440446,71.0516039 L213.440446,83.2624826 L220.866946,83.2624826 C224.794421,83.2624826 227.864993,86.404463 227.864993,90.5461646 C227.864993,94.6878661 224.794421,97.8298466 220.866946,97.8298466 L213.440446,97.8298466 L213.440446,109.398047 L228.150628,131.320502 L244.574616,131.320502 L244.574616,131.249093 Z" fill="#FF5533"></path>
    </g>
</svg>

<svg xmlns="http://www.w3.org/2000/svg" viewBox="0 0 256 202.372">
  <path fill="#f53" d="M58.77 91.189c0-4.07 3.141-7.07 7.069-7.07 3.927 0 7.07 3.071 7.07 7.07 0 4.07-3.143 7.07-7.07 7.07-3.928 0-7.07-3.071-7.07-7.07zm12.567-12.71c0 4.07 3.142 7.069 7.07 7.069 3.927 0 7.07-3.071 7.07-7.07 0-4.07-3.143-7.07-7.07-7.07-3.928 0-7.07 3-7.07 7.07zm17.21-8.641v12.71c9.926 0 17.71 8.07 17.71 18.638 0 10.569-7.856 18.638-17.71 18.638-9.926 0-17.71-8.07-17.71-18.638H56.984c0 17.567 13.996 31.348 31.563 31.348 17.566 0 31.562-13.781 31.562-31.348 0-17.566-13.996-31.348-31.562-31.348zm142.46 119.18v-12.067h22.35v-12.068h-22.35v-11.854h24.636v-12.14h-38.204v60.198H256v-12.14h-24.993zm-21.637-17.994c0 17.28-13.21 30.063-31.848 30.063H157.67v-60.27h19.852c18.638 0 31.848 12.926 31.848 30.207zm-13.853 0c0-10.283-6.855-18.067-16.924-18.067h-7.426v36.062h7.426c10.069 0 16.924-7.712 16.924-17.995zm-90.618 6.926c0 6.927-4.927 12.068-11.71 12.068-6.785 0-11.712-5.141-11.712-12.068v-36.99H68.052v36.776c0 14.21 10.64 24.636 25.136 24.636 14.496 0 25.136-10.497 25.136-24.636v-36.775H104.9zm-78.12 1.214h13.353c-1.214 6.213-6.713 10.997-13.282 10.997-7.355 0-13.282-5.927-13.282-14.567v-8.926c0-8.498 6.355-14.782 15.281-14.782 6.927 0 13.14 3.785 15.139 9.283l12.496-4.356c-3.427-10.568-14.71-17.138-27.635-17.138-16.352 0-28.492 10.997-28.492 26.993v8.926c.071 15.353 11.425 26.778 25.422 26.778 8.711 0 16.424-4.427 20.922-11.282v10.068h11.854v-33.49H26.778zm151.885-71.337V71.052H165.24v36.99c0 6.926-4.928 12.067-11.711 12.067-6.784 0-11.711-5.141-11.711-12.068v-36.99h-13.425v36.776c0 14.21 10.64 24.636 25.136 24.636 14.496 0 25.135-10.426 25.135-24.636zM22.708 131.25h13.496V108.4l22.637-37.347H43.559L29.278 95.688 15.21 71.052H0l22.637 37.49v22.707zM158.313 1.143h-45.702v12.139h45.702zM106.827 49.2H81.763V37.132h22.35V25.064h-22.35V13.211h24.636V1.07H68.195V61.27h38.56V49.2zM25.78 62.625c8.711 0 16.424-4.427 20.922-11.282V61.41h11.854v-33.49H26.778v11.568h13.354c-1.214 6.213-6.713 10.997-13.282 10.997-7.355 0-13.282-5.927-13.282-14.567v-8.927c0-8.497 6.355-14.781 15.281-14.781 6.927 0 13.14 3.785 15.139 9.283l12.496-4.356C53.057 6.57 41.774 0 28.85 0 12.497 0 .357 10.997.357 26.992v8.927C.428 51.2 11.782 62.625 25.779 62.625zm183.663 53.414-6.998-7.355 6.926-7.498-6.998-7.355 6.927-7.498-6.998-7.355 7.712-7.926h-13.996l-7.57 7.997 6.998 7.355-6.926 7.498 6.998 7.355-6.927 7.498 6.998 7.355-6.926 7.498 7.426 7.713h14.068l-7.57-7.784zm-65.625 53.2c2-1.786 5.356-4.785 5.356-10.355 0-5.498-3.357-8.569-5.356-10.354l-.214-.214c-1-1.071-1.143-2.57-1.214-3.285v-4.213H128.82v5.855c0 5.499 3.356 8.57 5.356 10.355 1.428 1.285 1.428 1.356 1.428 1.856s0 .572-1.428 1.857c-1.928 1.714-5.07 4.57-5.284 9.711v.857c.214 5.142 3.427 7.998 5.284 9.712 1.428 1.285 1.428 1.357 1.428 1.857s0 .57-1.428 1.856c-2 1.785-5.356 4.785-5.356 10.354V200.943h13.568v-4.212c0-.714.214-2.214 1.214-3.285l.214-.214c2-1.785 5.356-4.785 5.356-10.354 0-5.499-3.357-8.57-5.356-10.355-1.285-1.142-1.428-1.356-1.428-1.714.071-.214.214-.428 1.428-1.57zM128.678 61.34h13.497V50.129h-13.497zm13.568-27.207H128.75v11.211h13.496zm0-16.067H128.75v11.212h13.496zM244.575 131.25l-16.424-22.993c7.997-2.5 13.567-9.498 13.567-18.067 0-10.854-8.997-19.137-20.351-19.137h-7.927v12.21h7.427c3.927 0 6.998 3.142 6.998 7.284 0 4.142-3.07 7.284-6.998 7.284h-7.427v11.568l14.71 21.922h16.425z"/>
</svg>
